X: 27554
T: Monday Morning Community Centre Meeting
R: reel
M: 4/4
K: Amajor
FccB cBAE|FccB ce (c2|c2) cB cB A/B/c|B2BA BAFE|
FccB cBAE|FccB ce (c2|c2) cB cB A/B/c|B2BA Bcea|| :
f2fe cBB2|FA~A2 cB~B2|f2fe cBB2|afec Bcea|
f2fe cBB2|FAAF cB~B2|cA~A2 BF~F2|1 afec Bcea :|2 afec B4:|

